icons/calendar-percent-outline.svg

<svg xmlns="http://www.w3.org/2000/svg" width="24" height="24" viewBox="0 0 24 24">
  <path d="M16,1 C16.5128358,1 16.9355072,1.38604019 16.9932723,1.88337887 L17,2 L17,3 L18,3 C20.1421954,3 21.8910789,4.68396847 21.9951047,6.80035966 L22,7 L22,19 C22,21.1421954 20.3160315,22.8910789 18.1996403,22.9951047 L18,23 L6,23 C3.85780461,23 2.10892112,21.3160315 2.00489531,19.1996403 L2,19 L2,7 C2,4.85780461 3.68396847,3.10892112 5.80035966,3.00489531 L6,3 L7,3 L7,2 C7,1.44771525 7.44771525,1 8,1 C8.51283584,1 8.93550716,1.38604019 8.99327227,1.88337887 L9,2 L9,3 L15,3 L15,2 C15,1.44771525 15.4477153,1 16,1 Z M20,11 L4,11 L4,19 C4,20.0543618 4.81587779,20.9181651 5.85073766,20.9945143 L6,21 L18,21 C19.0543618,21 19.9181651,20.1841222 19.9945143,19.1492623 L20,19 L20,11 Z M15.7071068,18.2928932 C16.0976311,18.6834175 16.0976311,19.3165825 15.7071068,19.7071068 C15.3165825,20.0976311 14.6834175,20.0976311 14.2928932,19.7071068 C13.9023689,19.3165825 13.9023689,18.6834175 14.2928932,18.2928932 C14.6834175,17.9023689 15.3165825,17.9023689 15.7071068,18.2928932 Z M15.7071068,12.2928932 C16.0675907,12.6533772 16.0953203,13.2206082 15.7902954,13.6128994 L15.7071068,13.7071068 L9.70710678,19.7071068 C9.31658249,20.0976311 8.68341751,20.0976311 8.29289322,19.7071068 C7.93240926,19.3466228 7.90467972,18.7793918 8.20970461,18.3871006 L8.29289322,18.2928932 L14.2928932,12.2928932 C14.6834175,11.9023689 15.3165825,11.9023689 15.7071068,12.2928932 Z M9.70710678,12.2928932 C10.0976311,12.6834175 10.0976311,13.3165825 9.70710678,13.7071068 C9.31658249,14.0976311 8.68341751,14.0976311 8.29289322,13.7071068 C7.90236893,13.3165825 7.90236893,12.6834175 8.29289322,12.2928932 C8.68341751,11.9023689 9.31658249,11.9023689 9.70710678,12.2928932 Z M7,5 L6,5 C4.9456382,5 4.08183488,5.81587779 4.00548574,6.85073766 L4,7 L4,9 L20,9 L20,7 C20,5.9456382 19.1841222,5.08183488 18.1492623,5.00548574 L18,5 L17,5 L17,6 C17,6.55228475 16.5522847,7 16,7 C15.4871642,7 15.0644928,6.61395981 15.0067277,6.11662113 L15,6 L15,5 L9,5 L9,6 C9,6.55228475 8.55228475,7 8,7 C7.48716416,7 7.06449284,6.61395981 7.00672773,6.11662113 L7,6 L7,5 Z"/>
</svg>

<svg xmlns="http://www.w3.org/2000/svg" viewBox="0 0 24 24">
  <path d="M16 1a1 1 0 0 1 1 .88V3h1a4 4 0 0 1 4 3.8V19a4 4 0 0 1-3.8 4H6a4 4 0 0 1-4-3.8V7a4 4 0 0 1 3.8-4H7V2a1 1 0 0 1 2-.12V3h6V2a1 1 0 0 1 1-1zm4 10H4v8a2 2 0 0 0 1.85 2H18a2 2 0 0 0 2-1.85V11zm-4.3 7.3a1 1 0 1 1-1.4 1.4 1 1 0 0 1 1.4-1.4zm0-6a1 1 0 0 1 .09 1.31l-.08.1-6 6a1 1 0 0 1-1.5-1.32l.08-.1 6-6a1 1 0 0 1 1.42 0zm-6 0a1 1 0 1 1-1.4 1.4 1 1 0 0 1 1.4-1.4zM7 5H6a2 2 0 0 0-2 1.85V9h16V7a2 2 0 0 0-1.85-2H17v1a1 1 0 0 1-2 .12V5H9v1a1 1 0 0 1-2 .12V5z"/>
</svg>
